papirus/48x48/apps/kanatest.svg

<?xml version="1.0" encoding="UTF-8" standalone="no"?>
<!-- Created with Inkscape (http://www.inkscape.org/) -->

<svg
   xmlns:dc="http://purl.org/dc/elements/1.1/"
   xmlns:cc="http://creativecommons.org/ns#"
   xmlns:rdf="http://www.w3.org/1999/02/22-rdf-syntax-ns#"
   xmlns:svg="http://www.w3.org/2000/svg"
   xmlns="http://www.w3.org/2000/svg"
   xmlns:sodipodi="http://sodipodi.sourceforge.net/DTD/sodipodi-0.dtd"
   xmlns:inkscape="http://www.inkscape.org/namespaces/inkscape"
   id="svg2817"
   height="48"
   width="48"
   version="1.0"
   inkscape:version="0.91 r13725"
   sodipodi:docname="kanatest.svg">
  <sodipodi:namedview
     pagecolor="#ffffff"
     bordercolor="#666666"
     borderopacity="1"
     objecttolerance="10"
     gridtolerance="10"
     guidetolerance="10"
     inkscape:pageopacity="0"
     inkscape:pageshadow="2"
     inkscape:window-width="1600"
     inkscape:window-height="849"
     id="namedview21"
     showgrid="false"
     inkscape:zoom="8.08"
     inkscape:cx="33.685644"
     inkscape:cy="24"
     inkscape:window-x="0"
     inkscape:window-y="0"
     inkscape:window-maximized="1"
     inkscape:current-layer="svg2817" />
  <metadata
     id="metadata57">
    <rdf:RDF>
      <cc:Work
         rdf:about="">
        <dc:format>image/svg+xml</dc:format>
        <dc:type
           rdf:resource="http://purl.org/dc/dcmitype/StillImage" />
        <dc:title></dc:title>
      </cc:Work>
    </rdf:RDF>
  </metadata>
  <defs
     id="defs2819" />
  <rect
     style="fill:#e9a84a"
     id="rect4203"
     transform="matrix(0,-1,-1,0,0,0)"
     rx="2"
     ry="2"
     height="40"
     width="40"
     y="-44"
     x="-44" />
  <path
     style="opacity:0.2;fill:#ffffff"
     inkscape:connector-curvature="0"
     id="rect4592"
     d="M 6,4 C 4.892,4 4,4.892 4,6 L 4,7 C 4,5.892 4.892,5 6,5 l 36,0 c 1.108,0 2,0.892 2,2 L 44,6 C 44,4.892 43.108,4 42,4 L 6,4 Z" />
  <path
     style="opacity:0.3"
     inkscape:connector-curvature="0"
     id="path4597"
     d="M 6,44 C 4.892,44 4,43.108 4,42 l 0,-1 c 0,1.108 0.892,2 2,2 l 36,0 c 1.108,0 2,-0.892 2,-2 l 0,1 c 0,1.108 -0.892,2 -2,2 L 6,44 Z" />
  <g
     id="g4163"
     transform="translate(2.0001744,0)"
     style="opacity:0.4">
    <path
       style="color:#000000;font-style:normal;font-variant:normal;font-weight:normal;font-stretch:normal;font-size:medium;line-height:normal;font-family:sans-serif;text-indent:0;text-align:start;text-decoration:none;text-decoration-line:none;text-decoration-style:solid;text-decoration-color:#000000;letter-spacing:normal;word-spacing:normal;text-transform:none;direction:ltr;block-progression:tb;writing-mode:lr-tb;baseline-shift:baseline;text-anchor:start;white-space:normal;clip-rule:nonzero;display:inline;overflow:visible;visibility:visible;opacity:1;isolation:auto;mix-blend-mode:normal;color-interpolation:sRGB;color-interpolation-filters:linearRGB;solid-color:#000000;solid-opacity:1;fill:#000000;fill-opacity:1;fill-rule:evenodd;stroke:none;stroke-width:4;stroke-linecap:round;stroke-linejoin:round;stroke-miterlimit:4;stroke-dasharray:none;stroke-dashoffset:0;stroke-opacity:1;color-rendering:auto;image-rendering:auto;shape-rendering:auto;text-rendering:auto;enable-background:accumulate"
       d="M 22.900391 7.9746094 A 2.0002 2.0002 0 0 0 21.068359 9.484375 C 21.068359 9.484375 20.459387 11.762208 19.857422 15.048828 C 19.720109 14.887553 19.503795 14.638692 19.359375 14.367188 C 19.066889 13.817324 18.876953 13.306641 18.876953 13.306641 A 2.0002 2.0002 0 0 0 17.052734 11.974609 A 2.0002 2.0002 0 0 0 15.123047 14.693359 C 15.123047 14.693359 15.391673 15.423629 15.828125 16.244141 C 16.264577 17.064653 16.672008 18.104243 18.136719 18.804688 C 18.487865 18.97261 18.845458 19.102792 19.207031 19.210938 C 19.077966 20.201202 18.96062 21.213092 18.873047 22.253906 C 18.840877 22.636197 18.857061 23.028225 18.832031 23.414062 C 17.904306 23.612507 16.960021 23.779891 16.101562 24.107422 C 13.541918 25.084012 11.262878 26.7021 10.167969 29.197266 C 9.6804509 30.308259 9.8137695 31.534887 10.208984 32.466797 C 10.604199 33.398707 11.217991 34.139831 11.916016 34.773438 C 13.31207 36.04065 15.012233 36.963912 16.962891 37 C 18.27027 37.02419 19.469345 36.634616 20.613281 36.085938 C 21.423013 37.626601 22.488375 38.974998 24.101562 39.787109 C 27.132731 41.313059 30.619517 40.225585 33.421875 38.513672 C 34.823054 37.657716 36.071811 36.58132 36.962891 35.253906 C 37.85397 33.926492 38.396731 32.211057 37.931641 30.480469 C 37.218621 27.827342 35.135354 25.948016 32.707031 24.755859 C 32.432705 24.621182 32.105379 24.568975 31.820312 24.449219 C 32.230518 23.799153 32.728516 23.005859 32.728516 23.005859 A 2.0002 2.0002 0 1 0 29.271484 20.994141 C 29.271484 20.994141 28.103417 22.584392 27.675781 23.255859 C 26.62899 23.07505 25.578529 22.891886 24.501953 22.851562 C 23.94715 22.830783 23.401919 22.919487 22.847656 22.935547 C 22.856656 22.819378 22.849655 22.705791 22.859375 22.589844 C 22.947808 21.538816 23.071178 20.514776 23.205078 19.513672 C 24.21142 19.42008 25.197077 19.238439 26.123047 19.060547 C 28.608382 18.583079 30.638672 17.894531 30.638672 17.894531 A 2.0002 2.0002 0 1 0 29.361328 14.105469 C 29.361328 14.105469 27.553424 14.711228 25.369141 15.130859 C 24.883428 15.224172 24.377458 15.289418 23.876953 15.341797 C 24.414634 12.491916 24.931641 10.515625 24.931641 10.515625 A 2.0002 2.0002 0 0 0 22.900391 7.9746094 z M 24.351562 26.849609 C 24.600041 26.858909 24.82914 26.924839 25.076172 26.943359 C 24.946974 27.104072 24.980932 27.106671 24.847656 27.267578 C 24.244735 27.99551 23.55258 28.537757 22.894531 29.208984 C 22.824501 28.452494 22.720181 27.747467 22.708984 26.935547 C 23.260426 26.910867 23.797196 26.828848 24.351562 26.849609 z M 18.712891 27.546875 C 18.758131 29.160563 18.895389 30.752654 19.203125 32.251953 C 19.205625 32.264323 19.212324 32.274739 19.214844 32.287109 C 18.383288 32.718692 17.610011 33.010599 17.037109 33 C 16.631107 32.9925 15.357124 32.494787 14.605469 31.8125 C 14.229641 31.471356 13.975921 31.105425 13.890625 30.904297 C 13.805325 30.703169 13.845981 30.770941 13.832031 30.802734 C 14.345837 29.631833 15.610029 28.57527 17.527344 27.84375 C 17.880476 27.709018 18.325755 27.655601 18.712891 27.546875 z M 29.404297 27.820312 C 29.921432 27.995558 30.497325 28.126728 30.943359 28.345703 C 32.70717 29.211625 33.74232 30.306347 34.068359 31.519531 C 34.167259 31.887546 34.101689 32.341463 33.642578 33.025391 C 33.183465 33.709318 32.340509 34.485933 31.335938 35.099609 C 29.326792 36.326961 26.749246 36.641205 25.898438 36.212891 C 25.073956 35.79783 24.456699 34.894487 23.939453 33.761719 C 25.371424 32.546237 26.765008 31.224122 27.927734 29.820312 C 28.531222 29.091697 28.889652 28.514565 29.404297 27.820312 z "
       transform="translate(-2.0001744,0)"
       id="path4159" />
  </g>
</svg>

<?xml version="1.0" encoding="UTF-8" standalone="no"?>
<svg id="svg2817" xmlns:rdf="http://www.w3.org/1999/02/22-rdf-syntax-ns#" xmlns="http://www.w3.org/2000/svg" height="48" width="48" version="1.0" xmlns:cc="http://creativecommons.org/ns#" xmlns:dc="http://purl.org/dc/elements/1.1/">
 <metadata id="metadata57">
  <rdf:RDF>
   <cc:Work rdf:about="">
    <dc:format>image/svg+xml</dc:format>
    <dc:type rdf:resource="http://purl.org/dc/dcmitype/StillImage"/>
    <dc:title/>
   </cc:Work>
  </rdf:RDF>
 </metadata>
 <rect id="rect4203" transform="matrix(0,-1,-1,0,0,0)" rx="2" ry="2" height="40" width="40" y="-44" x="-44" fill="#e9a84a"/>
 <path id="rect4592" opacity=".2" fill="#fff" d="m6 4c-1.108 0-2 0.892-2 2v1c0-1.108 0.892-2 2-2h36c1.108 0 2 0.892 2 2v-1c0-1.108-0.892-2-2-2h-36z"/>
 <path id="path4597" opacity=".2" d="m6 45c-1.108 0-2-0.892-2-2v-1c0 1.108 0.892 2 2 2h36c1.108 0 2-0.892 2-2v1c0 1.108-0.892 2-2 2h-36z"/>
 <g id="g4163" opacity=".4" transform="translate(2.0002)">
  <path id="path4159" opacity="1" style="color-rendering:auto;text-decoration-color:#000000;color:#000000;isolation:auto;mix-blend-mode:normal;shape-rendering:auto;solid-color:#000000;block-progression:tb;text-decoration-line:none;text-decoration-style:solid;image-rendering:auto;white-space:normal;text-indent:0;text-transform:none" d="m22.9 7.9746a2.0002 2.0002 0 0 0 -1.832 1.5098s-0.609 2.2776-1.211 5.5646c-0.137-0.161-0.353-0.41-0.498-0.682-0.292-0.55-0.482-1.06-0.482-1.06a2.0002 2.0002 0 0 0 -1.824 -1.332 2.0002 2.0002 0 0 0 -1.93 2.718s0.269 0.731 0.705 1.551c0.437 0.821 0.844 1.86 2.309 2.561 0.351 0.168 0.708 0.298 1.07 0.406-0.129 0.99-0.246 2.002-0.334 3.043-0.032 0.382-0.016 0.774-0.041 1.16-0.928 0.199-1.872 0.366-2.73 0.693-2.56 0.977-4.839 2.595-5.934 5.09-0.4875 1.111-0.3542 2.338 0.041 3.27 0.395 0.932 1.009 1.673 1.707 2.306 1.396 1.268 3.096 2.191 5.047 2.227 1.307 0.024 2.506-0.365 3.65-0.914 0.81 1.541 1.875 2.889 3.489 3.701 3.031 1.526 6.518 0.439 9.32-1.273 1.401-0.856 2.65-1.933 3.541-3.26 0.891-1.328 1.434-3.043 0.969-4.774-0.713-2.653-2.797-4.532-5.225-5.724-0.274-0.135-0.602-0.187-0.887-0.307 0.411-0.65 0.909-1.443 0.909-1.443a2.0002 2.0002 0 1 0 -3.458 -2.012s-1.168 1.59-1.595 2.262c-1.047-0.181-2.097-0.364-3.174-0.404-0.555-0.021-1.1 0.067-1.654 0.084 0.009-0.117 0.002-0.23 0.011-0.346 0.089-1.051 0.212-2.075 0.346-3.076 1.006-0.094 1.992-0.276 2.918-0.453 2.485-0.478 4.516-1.166 4.516-1.166a2.0002 2.0002 0 1 0 -1.278 -3.79s-1.808 0.606-3.992 1.026c-0.486 0.093-0.992 0.158-1.492 0.211 0.538-2.85 1.055-4.826 1.055-4.826a2.0002 2.0002 0 0 0 -2.032 -2.5414zm1.452 18.875c0.248 0.009 0.477 0.075 0.724 0.093-0.129 0.161-0.095 0.164-0.228 0.325-0.603 0.728-1.295 1.27-1.953 1.941-0.07-0.757-0.175-1.462-0.186-2.273 0.551-0.025 1.088-0.107 1.643-0.086zm-5.639 0.697c0.045 1.614 0.182 3.206 0.49 4.705 0.003 0.012 0.009 0.023 0.012 0.035-0.832 0.432-1.605 0.724-2.178 0.713-0.406-0.008-1.68-0.505-2.432-1.188-0.375-0.341-0.629-0.707-0.714-0.908-0.086-0.201-0.045-0.133-0.059-0.101 0.514-1.171 1.778-2.228 3.695-2.959 0.353-0.135 0.799-0.188 1.186-0.297zm10.691 0.273c0.517 0.176 1.093 0.307 1.539 0.526 1.764 0.866 2.799 1.96 3.125 3.174 0.099 0.368 0.034 0.821-0.425 1.505-0.46 0.684-1.302 1.461-2.307 2.075-2.009 1.227-4.587 1.541-5.438 1.113-0.824-0.415-1.441-1.319-1.959-2.451 1.432-1.216 2.826-2.538 3.989-3.942 0.603-0.728 0.962-1.305 1.476-2z" fill-rule="evenodd" transform="translate(-2.0002)"/>
 </g>
</svg>
